images/icons/clock.svg

<svg width="32" height="32" viewBox="0 0 32 32" fill="none" xmlns="http://www.w3.org/2000/svg">
<path d="M16 0C7.17725 0 0 7.17725 0 16C0 24.8228 7.17725 32 16 32C24.8228 32 32 24.8228 32 16C32 7.17725 24.8228 0 16 0ZM23.6094 24.2759C23.3494 24.5359 23.0081 24.6667 22.6667 24.6667C22.3254 24.6667 21.9839 24.5359 21.7241 24.2759L15.0574 17.6094C14.8066 17.3601 14.6667 17.0212 14.6667 16.6667V8C14.6667 7.2627 15.2639 6.66675 16 6.66675C16.7361 6.66675 17.3333 7.2627 17.3333 8V16.1147L23.6094 22.3906C24.1306 22.9121 24.1306 23.7546 23.6094 24.2759Z" fill="#AC9374"/>
</svg>

<svg width="32" height="32" fill="none" xmlns="http://www.w3.org/2000/svg"><path d="M16 0C7.177 0 0 7.177 0 16s7.177 16 16 16 16-7.177 16-16S24.823 0 16 0zm7.61 24.276a1.33 1.33 0 01-1.886 0l-6.667-6.667a1.329 1.329 0 01-.39-.942V8a1.333 1.333 0 112.666 0v8.115l6.276 6.276a1.332 1.332 0 010 1.885z" fill="#AC9374"/></svg>
